src/assets/Wrong-cross.svg

<svg width="30" height="30" viewBox="0 0 30 30" fill="none" xmlns="http://www.w3.org/2000/svg">
<circle cx="15" cy="15" r="15" fill="#E6663C"/>
<path fill-rule="evenodd" clip-rule="evenodd" d="M20.9086 8.49547C20.1899 7.81127 19.0529 7.83912 18.3687 8.55767L14.733 12.3758L11.0975 8.55767C10.4133 7.83912 9.27625 7.81127 8.55762 8.49547C7.83912 9.17967 7.81129 10.3168 8.49549 11.0354L12.2524 14.981L8.49549 18.9266C7.81129 19.6451 7.83912 20.7823 8.55762 21.4665C9.27625 22.1507 10.4133 22.1228 11.0975 21.4043L14.733 17.5862L18.3687 21.4043C19.0529 22.1228 20.1899 22.1507 20.9086 21.4665C21.6271 20.7823 21.6549 19.6451 20.9707 18.9266L17.2138 14.981L20.9707 11.0354C21.6549 10.3168 21.6271 9.17967 20.9086 8.49547Z" fill="white"/>
</svg>

<svg xmlns="http://www.w3.org/2000/svg" width="30" height="30" fill="none"><circle cx="15" cy="15" r="15" fill="#E6663C"/><path fill="#fff" fill-rule="evenodd" d="M20.909 8.495a1.797 1.797 0 0 0-2.54.063l-3.636 3.818-3.636-3.818a1.796 1.796 0 1 0-2.602 2.477l3.757 3.946-3.757 3.946a1.797 1.797 0 0 0 2.603 2.477l3.635-3.818 3.636 3.818a1.797 1.797 0 0 0 2.602-2.477l-3.757-3.946 3.757-3.946a1.797 1.797 0 0 0-.062-2.54Z" clip-rule="evenodd"/></svg>
